X:1
T:Title
%%score { ( 1 3 ) | 2 }
L:1/8
M:6/8
K:Ab
V:1 treble nm="Grand Piano"
V:3 treble 
V:2 bass 
V:1
 z3 z2[Q:1/4=75] [CE]/[CA]/ | [Ec][EG][DB] [CA][CE][EA] | [EG][DF][EF] [DF]2 [DF]/[DF]/ | %3
 EGB [Ge]2 [EB] | [Fd] [Ec]2- [Ec]2 [CE]/[CA]/ | [Ec][DG][DB] [CA][CE][EA] | %6
[M:5/8] [EG][DF][EF] [DF]2 |[M:1/8] [=DF]/[DF]/ |[M:3/4] GF E c2 B |[M:5/8] [CA]-[CA]- [CA]3 | %10
[M:1/8] [Ec] |[M:3/4] cB B B2 d | dc c c2 c/c/ | cB A [B,=DF]2 [DFA] | %14
 [EGc]3 [DGB]2 [G,DE]/[G,DE]/ | z2 z2 z c | [Fe][Fd] [DF] [FA]2 [EG]/[DF]/ | EA c [Ae]2 [Ec] | %18
[M:5/8] [DB]3 [CA]2 |] %19
V:2
 z3 z2 [A,,A,]/[A,,A,]/ | [A,,A,][A,,E,][A,,E,] [A,,E,][A,,A,][C,A,] | %2
 [D,A,][D,A,][C,=A,] [B,,B,]2 [B,,B,]/[B,,B,]/ | [E,G,D][E,G,D][E,G,E] [E,B,]2 [E,G,] | %4
 [A,,A,] [A,,A,]2- [A,,A,]2 [A,,A,]/[A,,A,]/ | [A,,A,][A,,E,][A,,E,] [A,,E,][A,,A,][C,A,] | %6
[M:5/8] [D,A,][D,A,][C,=A,] [B,,B,]2 |[M:1/8] [B,,B,]/[B,,B,]/ | %8
[M:3/4] [E,B,D][E,A,D] [E,G,D] [E,A,E]2 [E,D] |[M:5/8] [A,,E,]-[A,,E,]- [A,,E,]3 |[M:1/8] [A,,A,] | %11
[M:3/4] [E,A,E][E,G,E] [E,G,E] [E,G,E]2 [E,G,E] | [A,F][A,E] [A,E] [A,E]2 [A,E]/[K:bass][A,E]/ | %13
 [F,A,=D][F,A,D] [F,A,D] B,,2 B,, | E,3 E,2 E,/E,/ | A,,D, [B,,E,][A,,A,] [E,G,E].[A,E] | %16
 [D,A,][D,A,] [D,A,] [D,D]2 [D,A,]/[C,A,]/ | [E,A,C][E,A,C] [E,A,E] [E,C]2 [E,A,] | %18
[M:5/8] [E,G,]3 [A,,E,A,]2 |] %19
V:3
 x6 | x6 | x6 | x6 | x6 | x6 |[M:5/8] x5 |[M:1/8] x |[M:3/4] x6 |[M:5/8] x5 |[M:1/8] x | %11
[M:3/4] x6 | x6 | x6 | x6 | [A,CE][A,DF] [DG][CA] .B>_G | x6 | x6 |[M:5/8] x5 |] %19

